examples/fineFoods/client/src/icons/refineLoveIcon.svg

<svg
    width="100"
    height="73"
    viewBox="0 0 100 73"
    fill="none"
    xmlns="http://www.w3.org/2000/svg"
>
    <path
        d="M15.2283 6.7H17.9823C18.6543 6.7 19.2513 6.832 19.7733 7.096C20.2953 7.354 20.7003 7.723 20.9883 8.203C21.2763 8.677 21.4203 9.226 21.4203 9.85C21.4203 10.474 21.2763 11.026 20.9883 11.506C20.7003 11.98 20.2953 12.349 19.7733 12.613C19.2513 12.871 18.6543 13 17.9823 13H15.2283V6.7ZM17.9283 12.01C18.3903 12.01 18.7953 11.923 19.1433 11.749C19.4973 11.569 19.7673 11.317 19.9533 10.993C20.1453 10.663 20.2413 10.282 20.2413 9.85C20.2413 9.418 20.1453 9.04 19.9533 8.716C19.7673 8.386 19.4973 8.134 19.1433 7.96C18.7953 7.78 18.3903 7.69 17.9283 7.69H16.3983V12.01H17.9283ZM27.3889 12.019V13H22.6639V6.7H27.2629V7.681H23.8339V9.319H26.8759V10.282H23.8339V12.019H27.3889ZM34.3653 6.7L31.6203 13H30.4683L27.7143 6.7H28.9833L31.0803 11.56L33.1953 6.7H34.3653ZM39.7551 12.019V13H35.0301V6.7H39.6291V7.681H36.2001V9.319H39.2421V10.282H36.2001V12.019H39.7551ZM41.0594 6.7H42.2294V12.01H45.5234V13H41.0594V6.7ZM49.2758 13.09C48.6338 13.09 48.0548 12.952 47.5388 12.676C47.0228 12.394 46.6178 12.007 46.3238 11.515C46.0298 11.017 45.8828 10.462 45.8828 9.85C45.8828 9.238 46.0298 8.686 46.3238 8.194C46.6178 7.696 47.0228 7.309 47.5388 7.033C48.0548 6.751 48.6338 6.61 49.2758 6.61C49.9178 6.61 50.4968 6.751 51.0128 7.033C51.5288 7.309 51.9338 7.693 52.2278 8.185C52.5218 8.677 52.6688 9.232 52.6688 9.85C52.6688 10.468 52.5218 11.023 52.2278 11.515C51.9338 12.007 51.5288 12.394 51.0128 12.676C50.4968 12.952 49.9178 13.09 49.2758 13.09ZM49.2758 12.064C49.6958 12.064 50.0738 11.971 50.4098 11.785C50.7458 11.593 51.0098 11.329 51.2018 10.993C51.3938 10.651 51.4898 10.27 51.4898 9.85C51.4898 9.43 51.3938 9.052 51.2018 8.716C51.0098 8.374 50.7458 8.11 50.4098 7.924C50.0738 7.732 49.6958 7.636 49.2758 7.636C48.8558 7.636 48.4778 7.732 48.1418 7.924C47.8058 8.11 47.5418 8.374 47.3498 8.716C47.1578 9.052 47.0618 9.43 47.0618 9.85C47.0618 10.27 47.1578 10.651 47.3498 10.993C47.5418 11.329 47.8058 11.593 48.1418 11.785C48.4778 11.971 48.8558 12.064 49.2758 12.064ZM56.501 6.7C57.047 6.7 57.521 6.79 57.923 6.97C58.331 7.15 58.643 7.408 58.859 7.744C59.075 8.08 59.183 8.479 59.183 8.941C59.183 9.397 59.075 9.796 58.859 10.138C58.643 10.474 58.331 10.732 57.923 10.912C57.521 11.092 57.047 11.182 56.501 11.182H55.079V13H53.909V6.7H56.501ZM56.447 10.192C56.957 10.192 57.344 10.084 57.608 9.868C57.872 9.652 58.004 9.343 58.004 8.941C58.004 8.539 57.872 8.23 57.608 8.014C57.344 7.798 56.957 7.69 56.447 7.69H55.079V10.192H56.447ZM65.0764 12.019V13H60.3514V6.7H64.9504V7.681H61.5214V9.319H64.5634V10.282H61.5214V12.019H65.0764ZM66.3807 6.7H69.1347C69.8067 6.7 70.4037 6.832 70.9257 7.096C71.4477 7.354 71.8527 7.723 72.1407 8.203C72.4287 8.677 72.5727 9.226 72.5727 9.85C72.5727 10.474 72.4287 11.026 72.1407 11.506C71.8527 11.98 71.4477 12.349 70.9257 12.613C70.4037 12.871 69.8067 13 69.1347 13H66.3807V6.7ZM69.0807 12.01C69.5427 12.01 69.9477 11.923 70.2957 11.749C70.6497 11.569 70.9197 11.317 71.1057 10.993C71.2977 10.663 71.3937 10.282 71.3937 9.85C71.3937 9.418 71.2977 9.04 71.1057 8.716C70.9197 8.386 70.6497 8.134 70.2957 7.96C69.9477 7.78 69.5427 7.69 69.0807 7.69H67.5507V12.01H69.0807ZM76.3035 6.7H77.4735V13H76.3035V6.7ZM84.7755 6.7V13H83.8125L80.3385 8.734V13H79.1775V6.7H80.1405L83.6145 10.966V6.7H84.7755Z"
        fill="white"
    />
    <g filter="url(#filter0_b_1901_1122)">
        <path
            fill-rule="evenodd"
            clip-rule="evenodd"
            d="M42.7806 31.1886H40.3155C40.2159 31.1865 40.1211 31.146 40.0507 31.0756C39.9803 31.0052 39.9398 30.9104 39.9377 30.8108V30.3553C39.9368 28.4545 40.8015 27.504 42.532 27.504C43.105 27.4977 43.6729 27.6122 44.1986 27.8401C44.2819 27.8778 44.3721 27.8979 44.4635 27.8992C44.5549 27.9005 44.6456 27.883 44.7299 27.8476C44.8142 27.8123 44.8903 27.76 44.9535 27.694C45.0167 27.6279 45.0656 27.5495 45.0972 27.4638L46.1374 24.5944C46.1944 24.4381 46.1912 24.2661 46.1283 24.112C46.0654 23.958 45.9473 23.8329 45.7972 23.7611C45.3533 23.5498 44.8876 23.3877 44.4083 23.2778C43.6113 23.0909 42.7952 22.9977 41.9765 23C39.5636 22.9991 37.6933 23.657 36.3656 24.9736C35.0379 26.2902 34.374 28.0693 34.374 30.3109V47.5643C34.374 48.3205 34.6744 49.0458 35.2091 49.5805C35.7439 50.1152 36.4691 50.4156 37.2253 50.4156C37.5997 50.4156 37.9705 50.3419 38.3164 50.1986C38.6624 50.0553 38.9767 49.8453 39.2415 49.5805C39.5062 49.3157 39.7162 49.0014 39.8595 48.6555C40.0028 48.3095 40.0766 47.9388 40.0766 47.5643V35.9592C40.0766 35.8572 40.1171 35.7594 40.1893 35.6872C40.2614 35.6151 40.3592 35.5745 40.4613 35.5745H42.7806C43.3622 35.5745 43.92 35.3435 44.3313 34.9322C44.7426 34.521 44.9736 33.9632 44.9736 33.3816C44.9736 32.8 44.7426 32.2422 44.3313 31.8309C43.92 31.4197 43.3622 31.1886 42.7806 31.1886ZM77.2625 39.8136C77.2625 36.8665 76.3852 34.5518 74.6306 32.8695C72.8761 31.188 70.4391 30.3478 67.3198 30.3487C64.2005 30.3496 61.7636 31.1904 60.009 32.8708C58.2544 34.5513 57.3772 36.8661 57.3772 39.815V47.5647C57.3772 48.3209 57.6776 49.0461 58.2123 49.5809C58.747 50.1156 59.4722 50.416 60.2284 50.416C60.9846 50.416 61.7099 50.1156 62.2446 49.5809C62.7793 49.0461 63.0797 48.3209 63.0797 47.5647V39.9983C63.0788 38.3706 63.432 37.1401 64.1394 36.3068C64.8468 35.4735 65.8824 35.0569 67.2462 35.0569C68.636 35.0624 69.6901 35.4791 70.4086 36.3068C71.1271 37.1346 71.4863 38.3651 71.4863 39.9983V47.5633C71.4863 48.3195 71.7867 49.0447 72.3214 49.5795C72.8562 50.1142 73.5814 50.4146 74.3376 50.4146H74.4112C75.1674 50.4146 75.8926 50.1142 76.4274 49.5795C76.9621 49.0447 77.2625 48.3195 77.2625 47.5633V39.8136ZM98.4144 41.7881H85.4038C85.3568 41.7882 85.3105 41.7991 85.2685 41.8202C85.2265 41.8412 85.19 41.8718 85.1619 41.9093C85.1337 41.9469 85.1147 41.9905 85.1063 42.0368C85.0979 42.083 85.1004 42.1305 85.1135 42.1756C85.4085 43.1924 86.0465 44.0757 86.919 44.6755C87.9143 45.3819 89.1555 45.7352 90.6425 45.7352C91.5706 45.7512 92.4938 45.5964 93.366 45.2782C93.6322 45.1757 93.8908 45.0541 94.1395 44.9144C95.0187 44.4227 96.2825 44.5991 96.9658 45.3393L96.9964 45.3727C97.2281 45.6249 97.4003 45.9259 97.5001 46.2536C97.6 46.5813 97.625 46.9272 97.5732 47.2658C97.5215 47.6044 97.3944 47.927 97.2013 48.21C97.0082 48.4929 96.754 48.7288 96.4575 48.9003C94.8483 49.8364 92.8613 50.3044 90.4966 50.3044C88.2745 50.3044 86.3125 49.872 84.6107 49.0073C82.978 48.2086 81.6083 46.9589 80.6637 45.406C79.7378 43.8718 79.2749 42.1293 79.2749 40.1784C79.2493 38.35 79.7233 36.5493 80.6456 34.9703C81.5427 33.4391 82.8464 32.1863 84.4121 31.351C86.0084 30.4872 87.7926 30.0552 89.7647 30.0552C91.6896 30.0552 93.4322 30.4691 94.9923 31.2968C96.5332 32.1085 97.8084 33.346 98.6657 34.862C99.5555 36.4091 100 38.2063 100 40.2534V40.2729C99.9832 40.6815 99.8084 41.0675 99.5127 41.35C99.217 41.6325 98.8233 41.7895 98.4144 41.7881ZM86.5482 35.4647C85.7744 36.1155 85.2401 37.0061 85.0302 37.9952C85.0175 38.0511 85.0175 38.1092 85.0303 38.165C85.0431 38.2209 85.0683 38.2732 85.104 38.3181C85.1398 38.3629 85.1852 38.3991 85.2368 38.424C85.2885 38.4489 85.3451 38.4618 85.4024 38.4618H94.1673C94.2247 38.4616 94.2813 38.4485 94.3329 38.4235C94.3845 38.3984 94.4298 38.3621 94.4654 38.3171C94.501 38.2721 94.5261 38.2197 94.5387 38.1637C94.5512 38.1078 94.5511 38.0497 94.5381 37.9938C94.32 37.0141 93.788 36.1324 93.0229 35.4828C92.1452 34.7421 91.073 34.3717 89.8064 34.3717C88.5111 34.3689 87.425 34.7333 86.5482 35.4647ZM52.7008 32.4046C52.1661 31.8699 51.4408 31.5695 50.6846 31.5695C50.3102 31.5695 49.9394 31.6432 49.5935 31.7865C49.2476 31.9298 48.9332 32.1398 48.6685 32.4046C48.4037 32.6693 48.1937 32.9837 48.0504 33.3296C47.9071 33.6755 47.8334 34.0463 47.8334 34.4207V46.2397C47.8334 46.9959 48.1338 47.7211 48.6685 48.2559C49.2032 48.7906 49.9284 49.091 50.6846 49.091C51.4408 49.091 52.1661 48.7906 52.7008 48.2559C53.2355 47.7211 53.5359 46.9959 53.5359 46.2397V34.4207C53.5359 33.6645 53.2355 32.9393 52.7008 32.4046ZM47.8084 31.544C48.5712 30.7809 49.6056 30.3515 50.6846 30.3501C51.7637 30.3515 52.7981 30.7809 53.5609 31.544C54.3238 32.3072 54.7528 33.3417 54.7539 34.4207V46.2397C54.7539 47.319 54.3252 48.354 53.5621 49.1171C52.7989 49.8803 51.7639 50.309 50.6846 50.309C49.6054 50.309 48.5704 49.8803 47.8072 49.1171C47.0441 48.354 46.6153 47.319 46.6153 46.2397V34.4207C46.6165 33.3417 47.0455 32.3072 47.8084 31.544Z"
            fill="white"
        />
    </g>
    <path
        fill-rule="evenodd"
        clip-rule="evenodd"
        d="M10.1427 33.4229C10.7912 32.3236 11.6022 31.3286 12.5481 30.4716L12.6092 30.2897C11.7297 30.1281 10.8369 30.0495 9.94266 30.055C6.82334 30.055 4.3864 30.8957 2.63184 32.5771C0.87728 34.2585 0 36.5732 0 39.5212V47.5626C0 48.3188 0.300401 49.044 0.835118 49.5787C1.36984 50.1135 2.09507 50.4139 2.85128 50.4139C3.60748 50.4139 4.33271 50.1135 4.86743 49.5787C5.40215 49.044 5.70255 48.3188 5.70255 47.5626V39.7046C5.70255 38.0713 6.05578 36.8408 6.76223 36.0131C7.39554 35.2723 8.2918 34.8636 9.45101 34.7867C9.65422 34.3187 9.88517 33.8633 10.1427 33.4229ZM30.5402 41.7879H17.5296C17.4826 41.788 17.4363 41.799 17.3943 41.82C17.3523 41.8411 17.3157 41.8716 17.2874 41.9091C17.2592 41.9466 17.24 41.9902 17.2314 42.0364C17.2228 42.0826 17.225 42.1301 17.2379 42.1753C17.5338 43.1918 18.1715 44.0748 19.0434 44.6752C20.0397 45.3817 21.2813 45.7349 22.7683 45.7349C23.6964 45.751 24.6196 45.5961 25.4918 45.278C25.758 45.1755 26.0166 45.0539 26.2653 44.9141C27.1445 44.4225 28.4083 44.5989 29.0916 45.3391L29.1208 45.3724C29.3529 45.6244 29.5253 45.9254 29.6254 46.253C29.7255 46.5807 29.7507 46.9266 29.6991 47.2653C29.6475 47.604 29.5204 47.9267 29.3273 48.2097C29.1342 48.4927 28.8799 48.7286 28.5833 48.9001C26.9723 49.8361 24.9853 50.3042 22.6224 50.3042C20.4003 50.3042 18.4383 49.8718 16.7366 49.007C15.1037 48.208 13.7336 46.9584 12.7881 45.4058C11.8622 43.8716 11.3993 42.129 11.3993 40.1782C11.3737 38.3498 11.8477 36.549 12.77 34.9701C13.666 33.4403 14.9677 32.1882 16.531 31.3522C18.1272 30.4864 19.9124 30.0541 21.8863 30.055C23.8113 30.055 25.5538 30.4689 27.1139 31.2966C28.6546 32.1087 29.9296 33.3461 30.7874 34.8617C31.6762 36.4089 32.1211 38.2061 32.1221 40.2532C32.1226 40.2597 32.1226 40.2662 32.1221 40.2726C32.1049 40.6805 31.9306 41.0659 31.6358 41.3483C31.341 41.6307 30.9484 41.7882 30.5402 41.7879ZM18.674 35.4645C17.9002 36.1153 17.3659 37.0059 17.156 37.9949C17.1433 38.0507 17.1433 38.1087 17.156 38.1645C17.1687 38.2203 17.1938 38.2725 17.2294 38.3173C17.265 38.3621 17.3102 38.3983 17.3617 38.4233C17.4131 38.4483 17.4696 38.4614 17.5268 38.4616H26.289C26.3463 38.4614 26.4029 38.4483 26.4545 38.4232C26.5061 38.3982 26.5514 38.3618 26.587 38.3168C26.6227 38.2719 26.6477 38.2195 26.6603 38.1635C26.6729 38.1075 26.6727 38.0494 26.6598 37.9936C26.4404 37.0137 25.9075 36.1321 25.1418 35.4825C24.264 34.7418 23.1914 34.3715 21.9238 34.3715C20.6341 34.3687 19.5508 34.733 18.674 35.4645ZM52.8536 34.3536C52.8536 35.5517 51.8823 36.5229 50.6842 36.5229C49.4861 36.5229 48.5149 35.5517 48.5149 34.3536C48.5149 33.1555 49.4861 32.1842 50.6842 32.1842C51.8823 32.1842 52.8536 33.1555 52.8536 34.3536Z"
        fill="white"
    />
    <path
        d="M38.1858 59.7L36.0978 66H34.8558L33.2988 61.338L31.7148 66H30.4638L28.3758 59.7H29.5908L31.1568 64.488L32.7858 59.7H33.8658L35.4588 64.515L37.0698 59.7H38.1858ZM39.139 59.7H40.309V66H39.139V59.7ZM43.291 60.69H41.203V59.7H46.549V60.69H44.461V66H43.291V60.69ZM53.0251 59.7V66H51.8551V63.3H48.5971V66H47.4271V59.7H48.5971V62.301H51.8551V59.7H53.0251Z"
        fill="white"
    />
    <path
        d="M71.6613 59.4592C71.4441 58.9779 71.1309 58.5418 70.7392 58.1753C70.3472 57.8077 69.8851 57.5155 69.3779 57.3148C68.852 57.1057 68.288 56.9988 67.7185 57C66.9195 57 66.1401 57.2093 65.4627 57.6047C65.3006 57.6993 65.1467 57.8032 65.0008 57.9164C64.855 57.8032 64.701 57.6993 64.5389 57.6047C63.8616 57.2093 63.0821 57 62.2831 57C61.7078 57 61.1504 57.1054 60.6237 57.3148C60.1148 57.5163 59.6562 57.8063 59.2624 58.1753C58.8702 58.5414 58.5569 58.9776 58.3403 59.4592C58.1151 59.96 58 60.4918 58 61.0392C58 61.5555 58.1102 62.0935 58.329 62.6409C58.5121 63.0983 58.7746 63.5727 59.1101 64.0518C59.6416 64.8101 60.3725 65.6008 61.28 66.4025C62.7839 67.7313 64.2732 68.6492 64.3364 68.6864L64.7204 68.9221C64.8906 69.026 65.1094 69.026 65.2795 68.9221L65.6636 68.6864C65.7268 68.6476 67.2145 67.7313 68.72 66.4025C69.6275 65.6008 70.3584 64.8101 70.8899 64.0518C71.2254 63.5727 71.4895 63.0983 71.671 62.6409C71.8898 62.0935 72 61.5555 72 61.0392C72.0016 60.4918 71.8865 59.96 71.6613 59.4592V59.4592Z"
        fill="white"
    />
    <defs>
        <filter
            id="filter0_b_1901_1122"
            x="26.374"
            y="15"
            width="81.626"
            height="43.416"
            filterUnits="userSpaceOnUse"
            color-interpolation-filters="sRGB"
        >
            <feFlood flood-opacity="0" result="BackgroundImageFix" />
            <feGaussianBlur in="BackgroundImage" stdDeviation="4" />
            <feComposite
                in2="SourceAlpha"
                operator="in"
                result="effect1_backgroundBlur_1901_1122"
            />
            <feBlend
                mode="normal"
                in="SourceGraphic"
                in2="effect1_backgroundBlur_1901_1122"
                result="shape"
            />
        </filter>
    </defs>
</svg>

<svg
    viewBox="0 0 100 73"
    fill="none"
    xmlns="http://www.w3.org/2000/svg"
>
    <path
        d="M15.228 6.7h2.754c.672 0 1.27.132 1.791.396a2.86 2.86 0 011.215 1.107c.288.474.432 1.023.432 1.647 0 .624-.144 1.176-.432 1.656a2.937 2.937 0 01-1.215 1.107c-.522.258-1.119.387-1.79.387h-2.755V6.7zm2.7 5.31c.462 0 .867-.087 1.215-.261.354-.18.624-.432.81-.756.192-.33.288-.711.288-1.143 0-.432-.096-.81-.288-1.134a1.832 1.832 0 00-.81-.756c-.348-.18-.753-.27-1.215-.27h-1.53v4.32h1.53zm9.46.009V13h-4.724V6.7h4.599v.981h-3.43v1.638h3.043v.963h-3.042v1.737h3.555zM34.366 6.7L31.62 13h-1.152l-2.754-6.3h1.27l2.096 4.86 2.115-4.86h1.17zm5.39 5.319V13H35.03V6.7h4.6v.981H36.2v1.638h3.042v.963H36.2v1.737h3.555zM41.06 6.7h1.17v5.31h3.294V13H41.06V6.7zm8.217 6.39a3.624 3.624 0 01-1.737-.414 3.142 3.142 0 01-1.215-1.161 3.214 3.214 0 01-.441-1.665c0-.612.147-1.164.44-1.656a3.058 3.058 0 011.216-1.161 3.562 3.562 0 011.737-.423c.642 0 1.22.141 1.737.423.516.276.92.66 1.215 1.152.294.492.44 1.047.44 1.665 0 .618-.146 1.173-.44 1.665a3.142 3.142 0 01-1.215 1.161 3.624 3.624 0 01-1.737.414zm0-1.026c.42 0 .798-.093 1.134-.279.336-.192.6-.456.792-.792.192-.342.288-.723.288-1.143 0-.42-.096-.798-.288-1.134a2.011 2.011 0 00-.792-.792 2.245 2.245 0 00-1.134-.288c-.42 0-.798.096-1.134.288-.336.186-.6.45-.792.792a2.245 2.245 0 00-.288 1.134c0 .42.096.801.288 1.143.192.336.456.6.792.792.336.186.714.279 1.134.279zM56.5 6.7c.546 0 1.02.09 1.422.27.408.18.72.438.936.774.216.336.324.735.324 1.197 0 .456-.108.855-.324 1.197a2.07 2.07 0 01-.936.774c-.402.18-.876.27-1.422.27h-1.422V13h-1.17V6.7H56.5zm-.054 3.492c.51 0 .897-.108 1.161-.324.264-.216.396-.525.396-.927s-.132-.711-.396-.927c-.264-.216-.651-.324-1.161-.324h-1.368v2.502h1.368zm8.63 1.827V13H60.35V6.7h4.6v.981h-3.43v1.638h3.042v.963H61.52v1.737h3.555zM66.38 6.7h2.754c.672 0 1.269.132 1.79.396a2.86 2.86 0 011.216 1.107c.288.474.432 1.023.432 1.647 0 .624-.144 1.176-.432 1.656a2.937 2.937 0 01-1.215 1.107c-.522.258-1.12.387-1.791.387H66.38V6.7zm2.7 5.31c.462 0 .867-.087 1.215-.261.354-.18.624-.432.81-.756.192-.33.288-.711.288-1.143 0-.432-.096-.81-.288-1.134a1.832 1.832 0 00-.81-.756c-.348-.18-.753-.27-1.215-.27h-1.53v4.32h1.53zm7.222-5.31h1.17V13h-1.17V6.7zm8.472 0V13h-.963l-3.474-4.266V13h-1.16V6.7h.963l3.474 4.266V6.7h1.16z"
        fill="#fff"
    />
    <g filter="url(#refine-love-icon_svg__a)">
        <path
            fillRule="evenodd"
            clipRule="evenodd"
            d="M42.78 31.189h-2.465a.386.386 0 01-.378-.378v-.456c0-1.9.864-2.851 2.595-2.851a4.077 4.077 0 011.666.336.665.665 0 00.899-.376l1.04-2.87a.67.67 0 00-.34-.833 6.733 6.733 0 00-1.39-.483 10.523 10.523 0 00-2.43-.278c-2.413 0-4.283.657-5.61 1.974-1.329 1.316-1.992 3.095-1.992 5.337v17.253a2.851 2.851 0 105.702 0V35.96a.385.385 0 01.385-.385h2.32a2.193 2.193 0 100-4.385zm34.482 8.625c0-2.947-.877-5.262-2.632-6.944-1.754-1.682-4.191-2.522-7.31-2.521-3.12 0-5.557.841-7.311 2.522-1.755 1.68-2.632 3.995-2.632 6.944v7.75a2.852 2.852 0 005.702 0v-7.567c0-1.627.352-2.858 1.06-3.691.707-.834 1.743-1.25 3.107-1.25 1.39.005 2.444.422 3.162 1.25.719.828 1.078 2.058 1.078 3.691v7.565a2.852 2.852 0 002.851 2.852h.074a2.851 2.851 0 002.851-2.852v-7.75zm21.152 1.974h-13.01a.303.303 0 00-.291.388 4.584 4.584 0 001.805 2.5c.996.706 2.237 1.06 3.724 1.06a7.565 7.565 0 002.724-.458c.266-.102.524-.224.773-.364.88-.491 2.143-.315 2.826.425l.03.034a2.287 2.287 0 01-.538 3.527c-1.61.936-3.596 1.404-5.96 1.404-2.223 0-4.185-.432-5.887-1.297a9.512 9.512 0 01-3.947-3.601c-.926-1.534-1.389-3.277-1.389-5.228a10.047 10.047 0 011.371-5.208 9.605 9.605 0 013.767-3.619c1.596-.864 3.38-1.296 5.352-1.296 1.925 0 3.668.414 5.228 1.242a9.084 9.084 0 013.673 3.565c.89 1.547 1.335 3.344 1.335 5.391v.02a1.582 1.582 0 01-1.586 1.515zm-11.866-6.323a4.537 4.537 0 00-1.518 2.53.382.382 0 00.372.467h8.765a.383.383 0 00.37-.468 4.607 4.607 0 00-1.515-2.511c-.877-.74-1.95-1.111-3.216-1.111-1.295-.003-2.382.361-3.258 1.093zM52.7 32.405a2.851 2.851 0 00-4.867 2.016V46.24a2.852 2.852 0 005.702 0V34.42c0-.756-.3-1.48-.835-2.015zm-4.892-.861a4.074 4.074 0 012.876-1.194 4.074 4.074 0 014.07 4.07v11.82a4.07 4.07 0 11-8.14 0V34.42a4.075 4.075 0 011.194-2.876z"
            fill="#fff"
        />
    </g>
    <path
        fillRule="evenodd"
        clipRule="evenodd"
        d="M10.143 33.423a12.66 12.66 0 012.405-2.951l.061-.182a14.27 14.27 0 00-2.666-.235c-3.12 0-5.557.84-7.311 2.522C.877 34.258 0 36.573 0 39.521v8.042a2.851 2.851 0 105.703 0v-7.858c0-1.634.353-2.864 1.06-3.692.633-.74 1.529-1.15 2.688-1.226.203-.468.434-.924.692-1.364zm20.397 8.365H17.53a.304.304 0 00-.292.387 4.594 4.594 0 001.805 2.5c.997.707 2.238 1.06 3.725 1.06a7.566 7.566 0 002.724-.457 5.92 5.92 0 00.773-.364c.88-.492 2.143-.315 2.827.425l.029.033a2.286 2.286 0 01-.538 3.528c-1.61.936-3.598 1.404-5.96 1.404-2.223 0-4.185-.432-5.886-1.297a9.524 9.524 0 01-3.949-3.601c-.926-1.534-1.389-3.277-1.389-5.228a10.047 10.047 0 011.371-5.208 9.611 9.611 0 013.761-3.618c1.596-.866 3.381-1.298 5.355-1.297 1.925 0 3.668.414 5.228 1.242a9.093 9.093 0 013.673 3.565c.89 1.547 1.334 3.344 1.335 5.391v.02a1.582 1.582 0 01-1.582 1.515zm-11.866-6.323a4.537 4.537 0 00-1.518 2.53.382.382 0 00.37.467h8.763a.381.381 0 00.37-.468 4.615 4.615 0 00-1.517-2.511c-.878-.741-1.95-1.111-3.218-1.111-1.29-.003-2.373.361-3.25 1.093zm34.18-1.111a2.17 2.17 0 11-4.34 0 2.17 2.17 0 014.34 0z"
        fill="#fff"
    />
    <path
        d="M38.186 59.7L36.098 66h-1.242l-1.557-4.662L31.715 66h-1.251l-2.088-6.3h1.215l1.566 4.788 1.629-4.788h1.08l1.593 4.815 1.61-4.815h1.117zm.953 0h1.17V66h-1.17v-6.3zm4.152.99h-2.088v-.99h5.346v.99h-2.088V66h-1.17v-5.31zm9.734-.99V66h-1.17v-2.7h-3.258V66h-1.17v-6.3h1.17v2.601h3.258V59.7h1.17zm18.636-.24a4.03 4.03 0 00-.922-1.285 4.304 4.304 0 00-1.361-.86 4.468 4.468 0 00-1.66-.315c-.799 0-1.578.21-2.255.605a4.233 4.233 0 00-.462.311 4.223 4.223 0 00-.462-.311A4.475 4.475 0 0062.283 57a4.46 4.46 0 00-1.66.315 4.295 4.295 0 00-1.36.86 4.005 4.005 0 00-.923 1.284 3.83 3.83 0 00-.34 1.58c0 .517.11 1.054.329 1.602.183.457.446.932.781 1.41.532.76 1.263 1.55 2.17 2.352a24.171 24.171 0 003.056 2.283l.384.236a.54.54 0 00.56 0l.384-.236c.063-.038 1.55-.955 3.056-2.284.907-.801 1.638-1.592 2.17-2.35.335-.48.6-.954.781-1.411A4.317 4.317 0 0072 61.039a3.803 3.803 0 00-.339-1.58z"
        fill="#fff"
    />
    <defs>
        <filter
            id="refine-love-icon_svg__a"
            x="26.373"
            y="15"
            width="81.626"
            height="43.416"
            filterUnits="userSpaceOnUse"
            colorInterpolationFilters="sRGB"
        >
            <feFlood floodOpacity="{0}" result="BackgroundImageFix" />
            <feGaussianBlur in="BackgroundImage" stdDeviation="4" />
            <feComposite
                in2="SourceAlpha"
                operator="in"
                result="effect1_backgroundBlur"
            />
            <feBlend
                in="SourceGraphic"
                in2="effect1_backgroundBlur"
                result="shape"
            />
        </filter>
    </defs>
</svg>
